docs/images/header/white-red-logo.svg

<svg width="153" height="50" viewBox="0 0 153 50" fill="none" xmlns="http://www.w3.org/2000/svg">
<path d="M26.157 24.2H30.765V35.252L40.737 24.2H46.605L36.453 35.252L47.325 49.4H41.457L33.429 38.564L30.765 41.444V49.4H26.157V24.2Z" fill="#BC002D"/>
<path d="M50.4196 24.2H55.4956L61.9036 34.82L68.3116 24.2H73.3876L64.2076 39.248V49.4H59.5996V39.248L50.4196 24.2Z" fill="#BC002D"/>
<path d="M88.9191 49.688C81.3231 49.688 75.8871 43.748 75.8871 36.872C75.8871 29.996 81.3231 24.056 88.9191 24.056C96.5151 24.056 101.951 29.996 101.951 36.872C101.951 43.748 96.5151 49.688 88.9191 49.688ZM80.4951 36.872C80.4951 41.552 83.6991 45.188 88.9191 45.188C94.1391 45.188 97.3431 41.552 97.3431 36.872C97.3431 32.192 94.1391 28.556 88.9191 28.556C83.6991 28.556 80.4951 32.192 80.4951 36.872Z" fill="#BC002D"/>
<path d="M105.302 24.2H123.302V28.52H116.606V49.4H111.998V28.52H105.302V24.2Z" fill="#BC002D"/>
<path d="M139.685 49.688C132.089 49.688 126.653 43.748 126.653 36.872C126.653 29.996 132.089 24.056 139.685 24.056C147.281 24.056 152.717 29.996 152.717 36.872C152.717 43.748 147.281 49.688 139.685 49.688ZM131.261 36.872C131.261 41.552 134.465 45.188 139.685 45.188C144.905 45.188 148.109 41.552 148.109 36.872C148.109 32.192 144.905 28.556 139.685 28.556C134.465 28.556 131.261 32.192 131.261 36.872Z" fill="#BC002D"/>
<path d="M33.585 0H34.825V13.6C34.085 14.2 32.505 14.7 31.185 14.7C28.465 14.7 26.265 12.64 26.265 9.8C26.265 6.94 28.465 4.9 31.185 4.9C31.965 4.9 32.785 5.06 33.585 5.44V0ZM27.585 9.8C27.585 11.96 29.145 13.54 31.185 13.54C32.065 13.54 32.965 13.4 33.585 13.04V6.78C32.905 6.26 32.045 6.06 31.185 6.06C29.145 6.06 27.585 7.64 27.585 9.8Z" fill="white"/>
<path d="M43.8611 8.3C43.8611 7.06 43.1411 6.1 41.3011 6.1C39.9011 6.1 38.6411 6.66 38.0011 7.08V5.78C38.6411 5.36 39.8011 4.9 41.3011 4.9C43.5211 4.9 45.1411 5.86 45.1411 8.22V13.8C44.2011 14.3 43.2011 14.7 41.6811 14.7C38.9611 14.7 37.1411 13.66 37.1411 11.82C37.1411 10.1 38.7611 9.28 41.4811 9.02C42.2811 8.94 43.0611 8.88 43.8611 8.84V8.3ZM38.4211 11.82C38.4211 12.98 39.6411 13.62 41.6811 13.62C42.3611 13.62 43.1611 13.5 43.8611 13.16V9.88C43.0611 9.92 42.2811 9.98 41.4811 10.06C39.4411 10.26 38.4211 10.8 38.4211 11.82Z" fill="white"/>
<path d="M46.8964 5.2H48.4164L51.7364 12.34L55.1164 5.2H56.4964L49.6764 19.6H48.2964L51.0964 13.68L46.8964 5.2Z" fill="white"/>
<path d="M0 5.585L16.56 0.0649983V49.4H7.935V12.14L0 14.762V5.585Z" fill="white"/>
</svg>

<svg width="153" height="50" fill="none" xmlns="http://www.w3.org/2000/svg"><path d="M26.157 24.2h4.608v11.052L40.737 24.2h5.868L36.453 35.252 47.325 49.4h-5.868l-8.028-10.836-2.664 2.88V49.4h-4.608V24.2Zm24.263 0h5.076l6.408 10.62 6.408-10.62h5.076l-9.18 15.048V49.4H59.6V39.248L50.42 24.2Zm38.5 25.488c-7.597 0-13.033-5.94-13.033-12.816s5.436-12.816 13.032-12.816 13.032 5.94 13.032 12.816-5.436 12.816-13.032 12.816Zm-8.425-12.816c0 4.68 3.204 8.316 8.424 8.316 5.22 0 8.424-3.636 8.424-8.316 0-4.68-3.204-8.316-8.424-8.316-5.22 0-8.424 3.636-8.424 8.316ZM105.302 24.2h18v4.32h-6.696V49.4h-4.608V28.52h-6.696V24.2Zm34.383 25.488c-7.596 0-13.032-5.94-13.032-12.816s5.436-12.816 13.032-12.816 13.032 5.94 13.032 12.816-5.436 12.816-13.032 12.816Zm-8.424-12.816c0 4.68 3.204 8.316 8.424 8.316 5.22 0 8.424-3.636 8.424-8.316 0-4.68-3.204-8.316-8.424-8.316-5.22 0-8.424 3.636-8.424 8.316Z" fill="#BC002D"/><path d="M33.585 0h1.24v13.6c-.74.6-2.32 1.1-3.64 1.1-2.72 0-4.92-2.06-4.92-4.9 0-2.86 2.2-4.9 4.92-4.9.78 0 1.6.16 2.4.54V0Zm-6 9.8c0 2.16 1.56 3.74 3.6 3.74.88 0 1.78-.14 2.4-.5V6.78c-.68-.52-1.54-.72-2.4-.72-2.04 0-3.6 1.58-3.6 3.74Zm16.276-1.5c0-1.24-.72-2.2-2.56-2.2-1.4 0-2.66.56-3.3.98v-1.3c.64-.42 1.8-.88 3.3-.88 2.22 0 3.84.96 3.84 3.32v5.58c-.94.5-1.94.9-3.46.9-2.72 0-4.54-1.04-4.54-2.88 0-1.72 1.62-2.54 4.34-2.8.8-.08 1.58-.14 2.38-.18V8.3Zm-5.44 3.52c0 1.16 1.22 1.8 3.26 1.8.68 0 1.48-.12 2.18-.46V9.88c-.8.04-1.58.1-2.38.18-2.04.2-3.06.74-3.06 1.76Zm8.475-6.62h1.52l3.32 7.14 3.38-7.14h1.38l-6.82 14.4h-1.38l2.8-5.92-4.2-8.48ZM0 5.585 16.56.065V49.4H7.935V12.14L0 14.762V5.585Z" fill="#fff"/></svg>
